usr/share/icons/biglinux-icons-material-dark/symbolic/actions/view-financial-account-close.svg

<svg viewBox="0 0 16 16" xmlns="http://www.w3.org/2000/svg">
  <defs id="defs3051">
    <style type="text/css" id="current-color-scheme">
      .ColorScheme-Text {
        color:#dedede;
      }
      </style>
  </defs>
<path
    d="m5.2792969 2-.6875.65625 1.4375 1.34375h-4.0292969v1.0019531h4.0292969l-1.4375 1.34375.6875.65625 2.5-2.3125.21875-.1875-.21875-.1894531zm8.7207031 1.0488281-7 5.5332031v5.4179688h7v-3h-1v1h-3.3457031l4.3457031-3.296875zm-1 2.0136719v3.1445312l-5 3.7910158v-2.9433595z"
    style="fill:currentColor;fill-opacity:1;stroke:none" 
    class="ColorScheme-Text"
    />
</svg>

<svg xmlns="http://www.w3.org/2000/svg" viewBox="0 0 16 16">
<defs id="defs3051">
<style id="current-color-scheme" type="text/css">
.ColorScheme-Contrast{color:#dedede}
</style>
</defs>
<path d="m5.28 2-.688.656L6.029 4H2v1.002h4.03L4.591 6.346l.687.656 2.5-2.313.219-.187-.219-.19zM14 3.049 7 8.582V14h7v-3h-1v1H9.654L14 8.703zm-1 2.013v3.145l-5 3.791V9.055z" class="ColorScheme-Contrast" style="fill:currentColor;fill-opacity:1;stroke:none"/>
</svg>
